src/assets/icons/awards/critics-choice.svg

<svg width="120" height="120" viewBox="0 0 450 450" fill="none" xmlns="http://www.w3.org/2000/svg">
<path fill-rule="evenodd" clip-rule="evenodd" d="M185.915 17.2681L162.925 102.077L163.097 102.531C198.605 196.287 204.163 301.905 202.501 342.939L202.438 344.5H245.059L245.062 344.559L246.53 344.5H247.415V344.464L248.059 344.438L247.999 342.939C246.337 301.905 251.895 196.287 287.403 102.531L287.575 102.077L264.585 17.2681L225.25 24.7098L185.915 17.2681ZM225.25 27.462L225.195 27.7526L188.085 20.7317L166.075 101.924C201.173 194.889 207.026 299.211 205.557 341.5H244.943C243.474 299.211 249.327 194.889 284.425 101.924L262.415 20.7317L225.305 27.7526L225.25 27.462Z" fill="#FFDC25"/>
<path d="M225.25 27.462L225.195 27.7526L188.085 20.7317L166.075 101.924C201.173 194.889 207.026 299.211 205.557 341.5H244.943C243.474 299.211 249.327 194.889 284.425 101.924L262.415 20.7317L225.305 27.7526L225.25 27.462Z" fill="#FFDC25"/>
<path d="M199 99.5C205.167 113.5 217.1 176.1 215.5 314.5L224.5 345.5" stroke="#484848" stroke-width="2" stroke-linecap="round"/>
<path fill-rule="evenodd" clip-rule="evenodd" d="M225.084 69.5906C224.982 69.6369 224.887 69.7011 224.803 69.7827C224.785 69.8002 224.768 69.8182 224.752 69.8367L197.822 99.3066L198.085 99.9031C201.098 106.744 205.613 125.751 209.168 160.452C212.717 195.106 215.3 245.317 214.5 314.488L214.498 314.637L223.54 345.779C223.691 346.3 224.229 346.603 224.75 346.468C225.272 346.603 225.809 346.3 225.96 345.779L235.002 314.637L235 314.488C234.2 245.317 236.783 195.106 240.332 160.452C243.887 125.751 248.402 106.744 251.415 99.9031L251.67 99.3253L226.267 69.8587C226.252 69.8397 226.235 69.8212 226.217 69.8032C226.137 69.7199 226.044 69.6535 225.945 69.6043C225.674 69.4693 225.356 69.4661 225.084 69.5906ZM225.478 72.0063L200.172 99.6998C203.311 107.303 207.699 126.481 211.157 160.248C214.714 194.969 217.297 245.211 216.502 314.363L224.75 342.774L232.998 314.363C232.203 245.211 234.786 194.969 238.343 160.248C241.804 126.453 246.196 107.271 249.336 99.681L225.478 72.0063Z" fill="#FAFFC5"/>
<path d="M225.478 72.0063L200.172 99.6998C203.311 107.303 207.699 126.481 211.157 160.248C214.714 194.969 217.297 245.211 216.502 314.363L224.75 342.774L232.998 314.363C232.203 245.211 234.786 194.969 238.343 160.248C241.804 126.453 246.196 107.271 249.336 99.681L225.478 72.0063Z" fill="#FAFFC5"/>
<path d="M225 11L236.331 46.5228H273L243.334 68.4772L254.666 104L225 82.0457L195.334 104L206.666 68.4772L177 46.5228H213.669L225 11Z" fill="#FBC60B"/>
<path d="M191.994 345.514C192.602 343.996 194.073 343 195.708 343H253.805C255.434 343 256.9 343.988 257.512 345.498L292.77 432.498C293.836 435.127 291.901 438 289.063 438H160.908C158.078 438 156.143 435.142 157.194 432.514L191.994 345.514Z" fill="#484848"/>
</svg>

<svg xmlns="http://www.w3.org/2000/svg" width="450" height="450" fill="none"><path fill="#FFDC25" fill-rule="evenodd" d="m185.915 17.268-22.99 84.809.172.454c35.508 93.756 41.066 199.374 39.404 240.408l-.063 1.561h42.621l.003.059 1.468-.059h.885v-.036l.644-.026-.06-1.499c-1.662-41.034 3.896-146.652 39.404-240.408l.172-.454-22.99-84.809-39.335 7.442-39.335-7.442Zm39.335 10.194-.055.29-37.11-7.02-22.01 81.192c35.098 92.965 40.951 197.287 39.482 239.576h39.386c-1.469-42.289 4.384-146.611 39.482-239.576l-22.01-81.192-37.11 7.02-.055-.29Z" clip-rule="evenodd"/><path fill="#FFDC25" d="m225.25 27.462-.055.29-37.11-7.02-22.01 81.192c35.098 92.965 40.951 197.287 39.482 239.576h39.386c-1.469-42.289 4.384-146.611 39.482-239.576l-22.01-81.192-37.11 7.02-.055-.29Z"/><path stroke="#484848" stroke-linecap="round" stroke-width="2" d="M199 99.5c6.167 14 18.1 76.6 16.5 215l9 31"/><path fill="#FAFFC5" fill-rule="evenodd" d="M225.084 69.59a.99.99 0 0 0-.332.247l-26.93 29.47.263.596c3.013 6.841 7.528 25.848 11.083 60.549 3.549 34.654 6.132 84.865 5.332 154.036l-.002.149 9.042 31.142a1 1 0 0 0 1.21.689.999.999 0 0 0 1.21-.689l9.042-31.142-.002-.149c-.8-69.171 1.783-119.382 5.332-154.036 3.555-34.701 8.07-53.708 11.083-60.549l.255-.578-25.403-29.466a.984.984 0 0 0-.322-.254 1.001 1.001 0 0 0-.861-.014Zm.394 2.416L200.172 99.7c3.139 7.603 7.527 26.781 10.985 60.548 3.557 34.721 6.14 84.963 5.345 154.115l8.248 28.411 8.248-28.411c-.795-69.152 1.788-119.394 5.345-154.115 3.461-33.795 7.853-52.977 10.993-60.567l-23.858-27.675Z" clip-rule="evenodd"/><path fill="#FAFFC5" d="M225.478 72.006 200.172 99.7c3.139 7.603 7.527 26.781 10.985 60.548 3.557 34.721 6.14 84.963 5.345 154.115l8.248 28.411 8.248-28.411c-.795-69.152 1.788-119.394 5.345-154.115 3.461-33.795 7.853-52.977 10.993-60.567l-23.858-27.675Z"/><path fill="#FBC60B" d="m225 11 11.331 35.523H273l-29.666 21.954L254.666 104 225 82.046 195.334 104l11.332-35.523L177 46.523h36.669L225 11Z"/><path fill="#484848" d="M193 343h63.5l38.5 95H155l38-95Z"/></svg>
